X:16042
T:Stranger At The Gate
R:Reel
S:Paddy O'Brien
H:
N:
D:Stranger At The Gate
Z:Adrian Scahill
M:4/4
L:1/8
K:D
(3B,CD EF GECE|FDDE D2GA|B=cdB cdBA|GEDB, EA,A,2|\
B,EEF GABG|ABde fdec|dBAF DEFD|1 (3EFE DF E3D:|2 (3EFE DF EFGA||\
(3Bcd ef gece|fddc dedB|Acde fdec|dBAF DAEFD|\
=CEEF GABG|Acde fdec|dBAF DEFD|(3EFE DF E4:||
